client/public/img/game/shared/weapons/g19.svg

<?xml version="1.0" encoding="UTF-8" standalone="no"?>
<svg
   width="110"
   height="110"
   viewBox="0 0 110 110"
   fill="none"
   version="1.1"
   id="svg26"
   sodipodi:docname="g19.svg"
   inkscape:version="1.4 (86a8ad7, 2024-10-11)"
   xmlns:inkscape="http://www.inkscape.org/namespaces/inkscape"
   xmlns:sodipodi="http://sodipodi.sourceforge.net/DTD/sodipodi-0.dtd"
   xmlns="http://www.w3.org/2000/svg"
   xmlns:svg="http://www.w3.org/2000/svg">
  <sodipodi:namedview
     id="namedview26"
     pagecolor="#ffffff"
     bordercolor="#000000"
     borderopacity="0.25"
     inkscape:showpageshadow="2"
     inkscape:pageopacity="0.0"
     inkscape:pagecheckerboard="0"
     inkscape:deskcolor="#d1d1d1"
     inkscape:zoom="3.6681818"
     inkscape:cx="54.795539"
     inkscape:cy="95.27881"
     inkscape:window-width="1920"
     inkscape:window-height="1009"
     inkscape:window-x="-8"
     inkscape:window-y="-8"
     inkscape:window-maximized="1"
     inkscape:current-layer="svg26" />
  <g
     clip-path="url(#clip0_619_1202)"
     id="g26"
     transform="rotate(30,59.942596,43.065414)">
    <path
       d="M 90.4953,3.47011 87.793,5.03027 91.4335,11.3358 94.1358,9.77564 Z"
       fill="#5c5c5c"
       stroke="#333333"
       stroke-width="4.38083"
       stroke-miterlimit="3.99393"
       id="path1" />
    <path
       d="m 94.3629,12.7648 -1.3512,0.7801 0.9882,1.7115 1.3511,-0.7801 z"
       fill="#5c5c5c"
       stroke="#333333"
       stroke-width="4.38083"
       stroke-miterlimit="3.99393"
       id="path2" />
    <path
       d="M 9.14411,45.631 10.9006,44.6169 13.761,49.5713 9.61322,49.5639 Z"
       fill="#5c5c5c"
       stroke="#333333"
       stroke-width="4.38083"
       stroke-miterlimit="3.99393"
       id="path3" />
    <path
       d="m 53.0644,50.66 0.0506,1.2319 c 0.0279,0.4643 0.5131,0.7847 0.9445,0.5957 l 1.8224,-0.6919 c 0.1351,-0.078 0.3222,-0.0659 0.4903,0.0172 1.1437,0.4207 6.3747,1.7843 8.3564,0.6402 2.2519,-1.3001 -4.744,-0.624 -4.744,-0.624 0,0 -0.2297,1.9943 -5.4117,-2.8207 -4.7609,-4.3976 -2.1136,0.4996 -1.6195,1.3554 0.052,0.09 0.104,0.1801 0.111,0.2962 z"
       fill="#4d4d4d"
       stroke="#333333"
       stroke-width="2.19042"
       stroke-miterlimit="3.99393"
       id="path4" />
    <path
       d="m 83.027,7.17796 -1.1098,-2.9624 1.6664,-0.9621 2.6095,0.7754 c 0.3552,0.09518 0.4541,0.57854 0.0938,0.78657 z"
       fill="#5c5c5c"
       stroke="#333333"
       stroke-width="4.38083"
       stroke-miterlimit="3.99393"
       id="path5" />
    <path
       d="m 38.8134,101.162 -0.4038,4.917 c 0,0 -1.4996,2.187 1.0123,1.338 2.5119,-0.85 17.4442,-8.2702 17.4442,-8.2702 0,0 1.5415,-1.4905 0.7614,-2.8417 l -1.9763,-3.423 z"
       fill="#525252"
       stroke="#333333"
       stroke-width="4.38083"
       stroke-miterlimit="3.99393"
       id="path6" />
    <path
       d="m 52.5122,49.5964 c 0,0 6.2323,6.0102 9.645,4.6404 3.4128,-1.3698 -0.1495,-1.7152 -0.1495,-1.7152 0,0 -3.5521,-0.9518 -5.7021,-5.7158 -2.15,-4.764 -4.0025,-0.6918 -4.0025,-0.6918 z"
       fill="#4f4f4f"
       stroke="#333333"
       stroke-width="2.19042"
       stroke-miterlimit="3.99393"
       id="path7" />
    <path
       d="M 7.26149,49.1185 85.4928,3.95168 c 1.216,-0.70207 2.7789,-0.28326 3.481,0.9328 L 93.9405,13.487 11.0703,61.3322 6.25963,52.9999 C 5.40848,51.6296 5.91035,49.8986 7.26149,49.1185 Z"
       fill="#474747"
       id="path8" />
    <path
       d="m 13.5003,59.9307 c -0.5546,0.3203 -2.8318,2.8961 -2.3377,3.7518 0.4941,0.8558 4.0869,-0.618 4.4282,-0.755 0.5941,-0.2385 12.0801,-3.3113 11.1815,19.367 -0.9144,22.0265 4.5864,21.6735 5.1859,21.5675 0.045,-0.026 0.071,0.019 0.116,-0.007 l 3.5554,0.229 c 0.071,0.019 0.1611,-0.033 0.2321,-0.014 L 60.3394,93.4213 c 0.3413,-0.137 0.4035,-0.6533 0.1123,-0.8456 -1.2876,-0.878 -3.7796,-2.8021 -4.4753,-5.4632 -0.7755,-3.2154 0.6099,-4.9762 1.0083,-5.3263 0.0451,-0.026 0.0901,-0.052 0.1802,-0.104 0.2962,-0.111 1.1329,-0.534 -0.5322,-0.7137 -1.8331,-0.2628 -2.3714,-3.7954 -2.3923,-4.1436 0,0 -0.026,-0.0451 0.019,-0.0711 -0.0139,-0.2321 0.0236,-1.9353 1.0609,-3.6751 0.2943,-0.5303 0.2335,-1.1557 -0.1426,-1.5992 -1.2064,-1.4654 -3.3558,-4.6683 -2.1092,-7.1896 1.5149,-3.0966 6.2932,-3.4533 7.1058,-3.502 L 79.0002,49.9187 c 0,0 1.8206,-1.1111 1.0062,-1.4817 l -0.8855,-0.3895 c 0,0 -0.026,-0.0451 -0.071,-0.0191 -0.1941,-0.1281 -1.8629,-1.1464 -4.5413,-5.7854 -2.6784,-4.6391 -0.9363,-7.4465 -0.5519,-8.0287 0.019,-0.0711 0.1091,-0.1231 0.1541,-0.1491 L 91.5856,23.9761 c 0.2252,-0.13 0.3464,-0.4401 0.1904,-0.7104 -0.13,-0.2252 -0.0799,-0.5544 0.1903,-0.7104 l 1.3512,-0.7801 c 0.2252,-0.13 0.5544,-0.0799 0.7104,0.1904 0.13,0.2252 0.4402,0.3464 0.7104,0.1903 l 1.3061,-0.754 c 0.0451,-0.026 0.0901,-0.052 0.1351,-0.078 0.3083,-0.2981 1.3214,-1.6637 0.1773,-3.6455 L 94.0634,14.0181 C 93.9333,13.7929 93.6232,13.6718 93.353,13.8278 Z m 58.5408,-8.3362 -12.1603,7.0208 c 0,0 -5.908,0.1681 -7.4682,-2.5342 l -1.1702,-2.0268 c 0,0 -2.9904,-5.1796 13.9337,-14.3502 0,0 3.343,-2.5306 6.9836,3.7749 3.6405,6.3055 -0.1186,8.1155 -0.1186,8.1155 z"
       fill="#5c5c5c"
       id="path9" />
    <path
       d="m 72.0392,51.595 -12.1603,7.0208 c 0,0 -5.908,0.1681 -7.4682,-2.5343 l -1.1702,-2.0267 c 0,0 -2.9904,-5.1796 13.9338,-14.3502 0,0 3.343,-2.5306 6.9835,3.7749 3.6405,6.3055 -0.1186,8.1155 -0.1186,8.1155 z"
       stroke="#333333"
       stroke-width="2.19042"
       stroke-miterlimit="3.99393"
       id="path10" />
    <path
       d="m 26.9949,55.7421 14.4122,-8.3209 c 0.9908,-0.572 2.2696,-0.2294 2.8417,0.7615 0.572,0.9909 0.2294,2.2696 -0.7614,2.8417 l -14.4122,8.3209 c -0.9909,0.572 -2.2696,0.2294 -2.8417,-0.7615 -0.5721,-0.9909 -0.2295,-2.2696 0.7614,-2.8417 z"
       fill="#4d4d4d"
       id="path11" />
    <path
       d="m 43.5454,66.0028 7.6709,-2.6273 -0.4431,-3.8878 -8.0819,1.6034 z"
       fill="#525252"
       id="path12" />
    <path
       d="m 41.7779,29.854 c 0,0 1.9685,6.0098 5.5715,3.9296 l 9.368,-5.4086 c 0,0 1.6125,-1.4715 0.3573,-3.7494 -1.2551,-2.278 -1.5342,-2.6574 -1.5342,-2.6574"
       fill="#404040"
       id="path13" />
    <path
       d="m 41.7779,29.854 c 0,0 1.9685,6.0098 5.5715,3.9296 l 9.368,-5.4086 c 0,0 1.6125,-1.4715 0.3573,-3.7494 -1.2551,-2.278 -1.5342,-2.6574 -1.5342,-2.6574 z"
       stroke="#333333"
       stroke-width="2.19042"
       stroke-miterlimit="3.99393"
       id="path14" />
    <path
       d="m 11.6756,48.977 -1.8006,1.0396 4.4206,7.6567 1.8006,-1.0396 z"
       fill="#424242"
       id="path15" />
    <path
       d="m 13.9276,47.6772 -1.8006,1.0396 4.4206,7.6567 1.8006,-1.0396 z"
       fill="#424242"
       id="path16" />
    <path
       d="m 16.1776,46.3774 -1.8006,1.0396 4.4206,7.6567 1.8006,-1.0396 z"
       fill="#424242"
       id="path17" />
    <path
       d="m 18.4276,45.0776 -1.8006,1.0396 4.4206,7.6567 1.8006,-1.0396 z"
       fill="#424242"
       id="path18" />
    <path
       d="m 20.6913,43.7719 -1.8007,1.0396 4.4206,7.6567 1.8007,-1.0396 z"
       fill="#424242"
       id="path19" />
    <path
       d="m 22.9413,42.4721 -1.8007,1.0396 4.4206,7.6567 1.8007,-1.0396 z"
       fill="#424242"
       id="path20" />
    <path
       d="m 25.1932,41.1723 -1.8006,1.0396 4.4206,7.6567 1.8006,-1.0396 z"
       fill="#424242"
       id="path21" />
    <path
       d="m 27.4432,39.8735 -1.8006,1.0396 4.4206,7.6567 1.8006,-1.0396 z"
       fill="#424242"
       id="path22" />
    <path
       d="m 32.9433,73.3298 15.4523,-6.5193 3.5948,24.9483 -16.2835,8.2001 c 0,0 -4.4788,-0.4768 -3.5739,-14.5111 0.9049,-14.0343 0.8103,-12.118 0.8103,-12.118 z"
       fill="#525252"
       id="path23" />
    <path
       d="M 7.26149,49.1185 85.4928,3.95168 c 1.216,-0.70207 2.7789,-0.28326 3.481,0.9328 L 93.9405,13.487 11.0703,61.3322 6.25963,52.9999 C 5.40848,51.6296 5.91035,49.8986 7.26149,49.1185 Z"
       stroke="#333333"
       stroke-width="4.38083"
       stroke-miterlimit="3.99393"
       id="path24" />
    <path
       d="m 43.1349,32.4956 c 0.9212,1.2591 2.2968,2.3041 4.0846,1.3558 l -9.8712,5.7022 c -0.9458,0.5461 -2.1015,0.3125 -2.5435,-0.4532 -0.4681,-0.8107 -0.0665,-1.8833 0.8793,-2.4293 l 6.0802,-3.5104 c 0.3385,-0.1955 0.8426,-0.4517 1.3706,-0.6651 z"
       fill="#4f4f4f"
       stroke="#333333"
       stroke-width="2.19042"
       stroke-miterlimit="3.99393"
       id="path25" />
    <path
       d="m 11.1626,63.6825 c -0.4941,-0.8557 1.7831,-3.4315 2.3377,-3.7518 L 93.353,13.8278 c 0.2702,-0.156 0.5803,-0.0349 0.7104,0.1903 l 2.2934,3.6603 c 1.1441,1.9818 0.131,3.3474 -0.1773,3.6455 l -0.1351,0.078 -1.3061,0.754 c -0.2702,0.1561 -0.5804,0.0349 -0.7104,-0.1903 -0.156,-0.2703 -0.4852,-0.3204 -0.7104,-0.1904 l -1.3512,0.7801 c -0.2702,0.156 -0.3203,0.4852 -0.1903,0.7104 0.156,0.2703 0.0348,0.5804 -0.1904,0.7104 L 74.1108,34.0652 c -0.045,0.026 -0.1351,0.078 -0.1541,0.1491 -0.3844,0.5822 -2.1265,3.3896 0.5519,8.0287 2.6784,4.639 4.3472,5.6573 4.5413,5.7854 0.045,-0.026 0.071,0.0191 0.071,0.0191 l 0.8855,0.3895 c 0.8144,0.3706 -1.0062,1.4817 -1.0062,1.4817 L 60.1743,60.7879 c -0.8126,0.0487 -5.5909,0.4054 -7.1058,3.502 -1.2466,2.5213 0.9028,5.7242 2.1092,7.1896 0.3761,0.4435 0.4369,1.0689 0.1426,1.5992 -1.0373,1.7398 -1.0748,3.443 -1.0609,3.6751 -0.045,0.026 -0.019,0.0711 -0.019,0.0711 0.0209,0.3482 0.5592,3.8808 2.3923,4.1436 1.6651,0.1797 0.8284,0.6027 0.5322,0.7137 l -0.1802,0.104 c -0.3984,0.3501 -1.7838,2.1109 -1.0083,5.3263 0.6957,2.6611 3.1877,4.5852 4.4753,5.4632 0.2912,0.1923 0.229,0.7086 -0.1123,0.8456 L 35.8617,104.07 c -0.071,-0.019 -0.1611,0.033 -0.2321,0.014 l -3.5554,-0.229 c -0.045,0.026 -0.071,-0.019 -0.116,0.007 -0.5995,0.106 -6.1003,0.459 -5.1859,-21.5675 0.8986,-22.6783 -10.5874,-19.6055 -11.1815,-19.367 -0.3413,0.137 -3.9341,1.6108 -4.4282,0.755 z"
       stroke="#333333"
       stroke-width="4.38083"
       stroke-miterlimit="3.99393"
       id="path26" />
  </g>
  <defs
     id="defs26">
    <clipPath
       id="clip0_619_1202">
      <rect
         width="110"
         height="110"
         fill="white"
         id="rect26" />
    </clipPath>
  </defs>
</svg>

<svg width="110" height="110" viewBox="0 0 110 110" fill="none" xmlns="http://www.w3.org/2000/svg">
<g clip-path="url(#clip0_619_1202)">
<path d="M90.4953 3.47011L87.793 5.03027L91.4335 11.3358L94.1358 9.77564L90.4953 3.47011Z" fill="#5C5C5C" stroke="#333333" stroke-width="4.38083" stroke-miterlimit="3.99393"/>
<path d="M94.3629 12.7648L93.0117 13.5449L93.9999 15.2564L95.351 14.4763L94.3629 12.7648Z" fill="#5C5C5C" stroke="#333333" stroke-width="4.38083" stroke-miterlimit="3.99393"/>
<path d="M9.14411 45.631L10.9006 44.6169L13.761 49.5713L9.61322 49.5639L9.14411 45.631Z" fill="#5C5C5C" stroke="#333333" stroke-width="4.38083" stroke-miterlimit="3.99393"/>
<path d="M53.0644 50.66L53.115 51.8919C53.1429 52.3562 53.6281 52.6766 54.0595 52.4876L55.8819 51.7957C56.017 51.7177 56.2041 51.7298 56.3722 51.8129C57.5159 52.2336 62.7469 53.5972 64.7286 52.4531C66.9805 51.153 59.9846 51.8291 59.9846 51.8291C59.9846 51.8291 59.7549 53.8234 54.5729 49.0084C49.812 44.6108 52.4593 49.508 52.9534 50.3638C53.0054 50.4538 53.0574 50.5439 53.0644 50.66Z" fill="#4D4D4D" stroke="#333333" stroke-width="2.19042" stroke-miterlimit="3.99393"/>
<path d="M83.027 7.17796L81.9172 4.21556L83.5836 3.25346L86.1931 4.02886C86.5483 4.12404 86.6472 4.6074 86.2869 4.81543L83.027 7.17796Z" fill="#5C5C5C" stroke="#333333" stroke-width="4.38083" stroke-miterlimit="3.99393"/>
<path d="M38.8134 101.162L38.4096 106.079C38.4096 106.079 36.91 108.266 39.4219 107.417C41.9338 106.567 56.8661 99.1468 56.8661 99.1468C56.8661 99.1468 58.4076 97.6563 57.6275 96.3051L55.6512 92.8821L38.8134 101.162Z" fill="#525252" stroke="#333333" stroke-width="4.38083" stroke-miterlimit="3.99393"/>
<path d="M52.5122 49.5964C52.5122 49.5964 58.7445 55.6066 62.1572 54.2368C65.57 52.867 62.0077 52.5216 62.0077 52.5216C62.0077 52.5216 58.4556 51.5698 56.3056 46.8058C54.1556 42.0418 52.3031 46.114 52.3031 46.114L52.5122 49.5964Z" fill="#4F4F4F" stroke="#333333" stroke-width="2.19042" stroke-miterlimit="3.99393"/>
<path d="M7.26149 49.1185L85.4928 3.95168C86.7088 3.24961 88.2717 3.66842 88.9738 4.88448L93.9405 13.487L11.0703 61.3322L6.25963 52.9999C5.40848 51.6296 5.91035 49.8986 7.26149 49.1185Z" fill="#474747"/>
<path d="M13.5003 59.9307C12.9457 60.251 10.6685 62.8268 11.1626 63.6825C11.6567 64.5383 15.2495 63.0645 15.5908 62.9275C16.1849 62.689 27.6709 59.6162 26.7723 82.2945C25.8579 104.321 31.3587 103.968 31.9582 103.862C32.0032 103.836 32.0292 103.881 32.0742 103.855L35.6296 104.084C35.7006 104.103 35.7907 104.051 35.8617 104.07L60.3394 93.4213C60.6807 93.2843 60.7429 92.768 60.4517 92.5757C59.1641 91.6977 56.6721 89.7736 55.9764 87.1125C55.2009 83.8971 56.5863 82.1363 56.9847 81.7862C57.0298 81.7602 57.0748 81.7342 57.1649 81.6822C57.4611 81.5712 58.2978 81.1482 56.6327 80.9685C54.7996 80.7057 54.2613 77.1731 54.2404 76.8249C54.2404 76.8249 54.2144 76.7798 54.2594 76.7538C54.2455 76.5217 54.283 74.8185 55.3203 73.0787C55.6146 72.5484 55.5538 71.923 55.1777 71.4795C53.9713 70.0141 51.8219 66.8112 53.0685 64.2899C54.5834 61.1933 59.3617 60.8366 60.1743 60.7879L79.0002 49.9187C79.0002 49.9187 80.8208 48.8076 80.0064 48.437L79.1209 48.0475C79.1209 48.0475 79.0949 48.0024 79.0499 48.0284C78.8558 47.9003 77.187 46.882 74.5086 42.243C71.8302 37.6039 73.5723 34.7965 73.9567 34.2143C73.9757 34.1432 74.0658 34.0912 74.1108 34.0652L91.5856 23.9761C91.8108 23.8461 91.932 23.536 91.776 23.2657C91.646 23.0405 91.6961 22.7113 91.9663 22.5553L93.3175 21.7752C93.5427 21.6452 93.8719 21.6953 94.0279 21.9656C94.1579 22.1908 94.4681 22.312 94.7383 22.1559L96.0444 21.4019C96.0895 21.3759 96.1345 21.3499 96.1795 21.3239C96.4878 21.0258 97.5009 19.6602 96.3568 17.6784L94.0634 14.0181C93.9333 13.7929 93.6232 13.6718 93.353 13.8278L13.5003 59.9307ZM72.0411 51.5945L59.8808 58.6153C59.8808 58.6153 53.9728 58.7834 52.4126 56.0811L51.2424 54.0543C51.2424 54.0543 48.252 48.8747 65.1761 39.7041C65.1761 39.7041 68.5191 37.1735 72.1597 43.479C75.8002 49.7845 72.0411 51.5945 72.0411 51.5945Z" fill="#5C5C5C"/>
<path d="M72.0392 51.595L59.8789 58.6158C59.8789 58.6158 53.9709 58.7839 52.4107 56.0815L51.2405 54.0548C51.2405 54.0548 48.2501 48.8752 65.1743 39.7046C65.1743 39.7046 68.5173 37.174 72.1578 43.4795C75.7983 49.785 72.0392 51.595 72.0392 51.595Z" stroke="#333333" stroke-width="2.19042" stroke-miterlimit="3.99393"/>
<path d="M26.9949 55.7421L41.4071 47.4212C42.3979 46.8492 43.6767 47.1918 44.2488 48.1827C44.8208 49.1736 44.4782 50.4523 43.4874 51.0244L29.0752 59.3453C28.0843 59.9173 26.8056 59.5747 26.2335 58.5838C25.6614 57.5929 26.004 56.3142 26.9949 55.7421Z" fill="#4D4D4D"/>
<path d="M43.5454 66.0028L51.2163 63.3755L50.7732 59.4877L42.6913 61.0911L43.5454 66.0028Z" fill="#525252"/>
<path d="M41.7779 29.854C41.7779 29.854 43.7464 35.8638 47.3494 33.7836L56.7174 28.375C56.7174 28.375 58.3299 26.9035 57.0747 24.6256C55.8196 22.3476 55.5405 21.9682 55.5405 21.9682" fill="#404040"/>
<path d="M41.7779 29.854C41.7779 29.854 43.7464 35.8638 47.3494 33.7836L56.7174 28.375C56.7174 28.375 58.3299 26.9035 57.0747 24.6256C55.8196 22.3476 55.5405 21.9682 55.5405 21.9682L41.7779 29.854Z" stroke="#333333" stroke-width="2.19042" stroke-miterlimit="3.99393"/>
<path d="M11.6756 48.977L9.875 50.0166L14.2956 57.6733L16.0962 56.6337L11.6756 48.977Z" fill="#424242"/>
<path d="M13.9276 47.6772L12.127 48.7168L16.5476 56.3735L18.3482 55.3339L13.9276 47.6772Z" fill="#424242"/>
<path d="M16.1776 46.3774L14.377 47.417L18.7976 55.0737L20.5982 54.0341L16.1776 46.3774Z" fill="#424242"/>
<path d="M18.4276 45.0776L16.627 46.1172L21.0476 53.7739L22.8482 52.7343L18.4276 45.0776Z" fill="#424242"/>
<path d="M20.6913 43.7719L18.8906 44.8115L23.3112 52.4682L25.1119 51.4286L20.6913 43.7719Z" fill="#424242"/>
<path d="M22.9413 42.4721L21.1406 43.5117L25.5612 51.1684L27.3619 50.1288L22.9413 42.4721Z" fill="#424242"/>
<path d="M25.1932 41.1723L23.3926 42.2119L27.8132 49.8686L29.6138 48.829L25.1932 41.1723Z" fill="#424242"/>
<path d="M27.4432 39.8735L25.6426 40.9131L30.0632 48.5698L31.8638 47.5302L27.4432 39.8735Z" fill="#424242"/>
<path d="M32.9433 73.3298L48.3956 66.8105L51.9904 91.7588L35.7069 99.9589C35.7069 99.9589 31.2281 99.4821 32.133 85.4478C33.0379 71.4135 32.9433 73.3298 32.9433 73.3298Z" fill="#525252"/>
<path d="M7.26149 49.1185L85.4928 3.95168C86.7088 3.24961 88.2717 3.66842 88.9738 4.88448L93.9405 13.487L11.0703 61.3322L6.25963 52.9999C5.40848 51.6296 5.91035 49.8986 7.26149 49.1185Z" stroke="#333333" stroke-width="4.38083" stroke-miterlimit="3.99393"/>
<path d="M43.1349 32.4956C44.0561 33.7547 45.4317 34.7997 47.2195 33.8514L37.3483 39.5536C36.4025 40.0997 35.2468 39.8661 34.8048 39.1004C34.3367 38.2897 34.7383 37.2171 35.6841 36.6711L41.7643 33.1607C42.1028 32.9652 42.6069 32.709 43.1349 32.4956Z" fill="#4F4F4F" stroke="#333333" stroke-width="2.19042" stroke-miterlimit="3.99393"/>
<path d="M11.1626 63.6825C10.6685 62.8268 12.9457 60.251 13.5003 59.9307L93.353 13.8278C93.6232 13.6718 93.9333 13.7929 94.0634 14.0181L96.3568 17.6784C97.5009 19.6602 96.4878 21.0258 96.1795 21.3239L96.0444 21.4019L94.7383 22.1559C94.4681 22.312 94.1579 22.1908 94.0279 21.9656C93.8719 21.6953 93.5427 21.6452 93.3175 21.7752L91.9663 22.5553C91.6961 22.7113 91.646 23.0405 91.776 23.2657C91.932 23.536 91.8108 23.8461 91.5856 23.9761L74.1108 34.0652C74.0658 34.0912 73.9757 34.1432 73.9567 34.2143C73.5723 34.7965 71.8302 37.6039 74.5086 42.243C77.187 46.882 78.8558 47.9003 79.0499 48.0284C79.0949 48.0024 79.1209 48.0475 79.1209 48.0475L80.0064 48.437C80.8208 48.8076 79.0002 49.9187 79.0002 49.9187L60.1743 60.7879C59.3617 60.8366 54.5834 61.1933 53.0685 64.2899C51.8219 66.8112 53.9713 70.0141 55.1777 71.4795C55.5538 71.923 55.6146 72.5484 55.3203 73.0787C54.283 74.8185 54.2455 76.5217 54.2594 76.7538C54.2144 76.7798 54.2404 76.8249 54.2404 76.8249C54.2613 77.1731 54.7996 80.7057 56.6327 80.9685C58.2978 81.1482 57.4611 81.5712 57.1649 81.6822L56.9847 81.7862C56.5863 82.1363 55.2009 83.8971 55.9764 87.1125C56.6721 89.7736 59.1641 91.6977 60.4517 92.5757C60.7429 92.768 60.6807 93.2843 60.3394 93.4213L35.8617 104.07C35.7907 104.051 35.7006 104.103 35.6296 104.084L32.0742 103.855C32.0292 103.881 32.0032 103.836 31.9582 103.862C31.3587 103.968 25.8579 104.321 26.7723 82.2945C27.6709 59.6162 16.1849 62.689 15.5908 62.9275C15.2495 63.0645 11.6567 64.5383 11.1626 63.6825Z" stroke="#333333" stroke-width="4.38083" stroke-miterlimit="3.99393"/>
</g>
<defs>
<clipPath id="clip0_619_1202">
<rect width="110" height="110" fill="white"/>
</clipPath>
</defs>
</svg>
